X:29
T:Flop Eared Mule
R: Polka
M: 2/4
L: 1/8
K: Dmaj
C: Traditional
M:4/4
|:"D" f2 f2 d2 d2 | ABAG FE D2 |"A7" E2 EF GF E2 |1"D" DEFG A4 :|2 "D"D2 F2 D4 ||
|:"A" efec efec | efed cB A2 |"E7" B2 Bc dc B2 |1"A" ABcd e4 :|2 "D"A2 c2 A4 ||


